X:150
T: SCHIFFMANN LAT'T SCHIFFKEN SINKEN
N: E0078C
O: Europa, Mitteleuropa, Deutschland, Schoenebeck a.d. Elbe
R: erzaehlendes Volks - Lied, Sage, Liebe
M: 4/4
L: 1/8
K: F
FA | c2c2c2d2 | c3AF2
A2 | G4A2A2 | F3ED2
E2 | F2E2F2E2 | D4z2
A2 | A2B2A2G2 | F2E2D2
A2 | A2G2A2B2 | c3dc2A2 | c4A2

@@@ Tune index: 3800
